X:07
C:Page 04
T:Millers Wife of Droan. MBe.07
S:Matthew Betham MS, Towcett Cumbria, 1815
O:England;Cumbria;Towcett
Z:VMP – Hugh Taylor, 2012
T:Miller of Drone, aka. MBe.07
M:2/4
L:1/8
Q:1/2=60
R:.Reel
C:Nathaniel Gow
N:No Key signature in MS, but usually found in a major key.
K:D
“No Key sig. in MS”f/e/|dBBd|ABAF|Ddgf|e2 fe|
dBBd|ABAF|Adce|d2:|
|:f/g/|affd’|”semi-qu’s in MS”aa (b/a/g/f/)|affd’|b2bd’|
affd’|”semi-qu’s in MS”aa (b/a/g/f/)|gefd|B2 Bb|
affd’|”semi-qu’s in MS”aa (b/a/g/f/)|affd'”poss bar missing”|”sic”(d’/c’/b/) (a/b/c’/)|
d’abf|gefd|B2:|
\

